X: 1
T: Mor a' Cheannaich
R: strathspey
Z: 1997 by John Chambers <jc:trillian.mit.edu>
N: Harmony by Ed Pearlman
M: C
L: 1/8
K: GMix
V: 1
|: "G"D2 E<G "Em"B2 AE G>E "(D7)"C>D E<C \
|  "G"D2 E<G "Em"B2 AE G>E "D"D2 D2 :|
|: "Dm"F>D D<D "(G7)"D>E F>G | "C"E>F E>D C>D E<C \
|  "Dm"F>D D<D "Bb"D>D F>G | "Am"A<A G>E "Dm"D2 D2 :|
V: 2
|: {C}B,2 C<D G2 G2 | E2 C2 A,>B, C<A, \
|  B,<B, C<D G2 E<G | E2 C2 A,4 :|
|: D>A, A,/A,/A, A,2 D2 | C>D C>A, G,>A, C<G, \
|  D>A, A,/A,/A, A,2 D>E | F<F E>C D2 D2 :|
